X: 34
T: No_40_Like_a_Crow.krn
N: Derived from No_40_Like_a_Crow.krn
%%abc-version 2.0
%%abcx-abcm2ps-target-version 5.9.1 (29 Sep 2008)
%%abc-creator hum2abc beta
%%abcx-conversion-date 2019/03/15 08:27:55
%%humdrum-veritas 2154387542
%%humdrum-veritas-data 3175217946
%%linebreak <none>
%%barnumbers 0
L: 1/8
M: 2/4
%%staves {1 2}
V: 1 clef=bass
V: 2 clef=bass
K: F
[V:1] [K:clef=bass][M:2/4]z2F,3/C/ ]|:  
[V:2] [K:clef=bass][M:2/4]G,,2G,,2 ]|:  
[V:1] C2(C3/A,/) | 
[V:2] G,,2G,,2 | 
[V:1] [M:3/4]C3/F,/ F, z F,3/C/ | 
[V:2] [M:3/4]z6 | 
[V:1] [M:2/4]C2(C3/A,/) | 
[V:2] [M:2/4]z4 | 
[V:1] [M:3/4]C3/F,/F,2G,3/F,/ | 
[V:2] [M:3/4]z6 | 
[V:1] F,F,F,2G,F, | 
[V:2] z6 | 
[V:1] F,F, F, z G,3/F,/ | 
[V:2] z6 | 
[V:1] F,F,F,2G,F, | 
[V:2] z6 | 
[V:1] [M:2/4]F,F, F, z | 
[V:2] [M:2/4]z4 | 
[V:1] (!accent!CA,) (!accent!CA,) | 
[V:2] z4 | 
[V:1] [M:3/4]F,2F,2D, z | 
[V:2] [M:3/4]z6 | 
[V:1] F,D,D,2F,F, | 
[V:2] z6 | 
[V:1] F,F,F,2F, z | 
[V:2] z6 | 
[V:1] F,D,D,2F,F, | 
[V:2] z6 | 
[V:1] [M:2/4]F,F,F,2 | 
[V:2] [M:2/4]z4 | 
[V:1] F, z F,3/C/ :|]  
[V:2] z4 :|]  
[V:1] F, zz2 |]  
[V:2] z4 |]  



